X: 2
T: Breeches Mary
M: 6/8
L: 1/8
R: jig
K: Gmaj
|: g |\ 
eAA BAB | GBd dBd | egg dgg | BAB GBd |
eAA BAB | GBd dBd | e/f/ge dBA | BGG G2 :|
|:d |\ 
eaa bag | egg ged | egg dgg | BAB GBd |
eaa bag | egg ged | e/f/ge dBA | BGG G2 :|
